svgs/light/tenge-sign.svg

<svg xmlns="http://www.w3.org/2000/svg" viewBox="0 0 384 512"><!--! Font Awesome Pro 6.1.1 by @fontawesome - https://fontawesome.com License - https://fontawesome.com/license (Commercial License) Copyright 2022 Fonticons, Inc. --><path d="M0 48C0 39.16 7.164 32 16 32H368C376.8 32 384 39.16 384 48C384 56.84 376.8 64 368 64H16C7.164 64 0 56.84 0 48zM0 176C0 167.2 7.164 160 16 160H368C376.8 160 384 167.2 384 176C384 184.8 376.8 192 368 192H208V464C208 472.8 200.8 480 192 480C183.2 480 176 472.8 176 464V192H16C7.164 192 0 184.8 0 176z"/></svg>

<svg xmlns="http://www.w3.org/2000/svg" viewBox="0 0 384 512"><!--! Font Awesome Pro 6.4.2 by @fontawesome - https://fontawesome.com License - https://fontawesome.com/license (Commercial License) Copyright 2023 Fonticons, Inc. --><path d="M0 48c0-8.8 7.2-16 16-16H368c8.8 0 16 7.2 16 16s-7.2 16-16 16H16C7.2 64 0 56.8 0 48zM0 176c0-8.8 7.2-16 16-16H192 368c8.8 0 16 7.2 16 16s-7.2 16-16 16H208V464c0 8.8-7.2 16-16 16s-16-7.2-16-16V192H16c-8.8 0-16-7.2-16-16z"/></svg>
